Newaita-dark/apps/48/preferences-desktop-emoticons.svg

<svg height="48" viewBox="0 0 48 48" width="48" xmlns="http://www.w3.org/2000/svg" xmlns:xlink="http://www.w3.org/1999/xlink"><linearGradient id="a"><stop offset="0" stop-opacity=".313726"/><stop offset=".222222" stop-opacity=".27451"/><stop offset="1" stop-opacity="0"/></linearGradient><radialGradient id="b" cx="450.908936" cy="189.579361" gradientTransform="matrix(.00000026 -.117199 -.210958 -.00000015 66.784728 95.392994)" gradientUnits="userSpaceOnUse" r="21.166656" xlink:href="#a"/><radialGradient id="c" cx="450.908936" cy="189.579361" gradientTransform="matrix(-.00000026 .117199 .210958 .00000015 -19.155178 -11.291223)" gradientUnits="userSpaceOnUse" r="21.166656" xlink:href="#a"/><radialGradient id="d" cx="450.908936" cy="189.579361" gradientTransform="matrix(-.00000026 -.117199 .210958 -.00000015 -19.155178 95.392994)" gradientUnits="userSpaceOnUse" r="21.166656" xlink:href="#a"/><radialGradient id="e" cx="450.908936" cy="189.579361" gradientTransform="matrix(.00000026 .117199 -.210958 .00000015 66.784725 -11.291224)" gradientUnits="userSpaceOnUse" r="21.166656" xlink:href="#a"/><linearGradient id="f" gradientTransform="matrix(.0200401 0 0 .093759 18.698079 20.158175)" gradientUnits="userSpaceOnUse" x1="255.323059" x2="255.323044" y1="233.5" y2="254.666656"><stop offset="0" stop-opacity=".27451"/><stop offset="1" stop-opacity="0"/></linearGradient><linearGradient id="g" gradientUnits="userSpaceOnUse" x1="23.814786" x2="23.814786" y1="4.34415649995" y2="42.0509015"><stop offset="0" stop-color="#ffb74d"/><stop offset="1" stop-color="#ffa726"/></linearGradient><linearGradient id="h"><stop offset="0" stop-color="#424242"/><stop offset="1" stop-color="#616161"/></linearGradient><linearGradient id="i" gradientUnits="userSpaceOnUse" x1="17.3649308584" x2="17.3649308584" xlink:href="#h" y1="21.21296133566" y2="16.25155299807"/><linearGradient id="j" gradientUnits="userSpaceOnUse" x1="30.76074040879" x2="30.76074040879" xlink:href="#h" y1="21.21296184045" y2="16.25155342473"/><linearGradient id="k" gradientUnits="userSpaceOnUse" x1="23.814786" x2="23.814786" xlink:href="#h" y1="34.63441875005" y2="28.68072149998"/><path d="m27.289062 42.050781h3.96875v-1.984375h-3.96875zm0 0" fill="url(#b)"/><path d="m20.339844 42.050781h-3.96875v1.984375h3.96875zm0 0" fill="url(#c)"/><path d="m20.339844 42.050781h-3.96875v-1.984375h3.96875zm0 0" fill="url(#d)"/><path d="m27.289062 42.050781h3.96875v1.984375h-3.96875zm0 0" fill="url(#e)"/><path d="m20.339844 41.554688h6.949218v2.480468h-6.949218zm0 0" fill="url(#f)"/><path d="m23.816406 4.34375c10.410156 0 18.851563 8.441406 18.851563 18.855469 0 10.410156-8.441407 18.851562-18.851563 18.851562-10.414062 0-18.855468-8.441406-18.855468-18.851562 0-10.414063 8.441406-18.855469 18.855468-18.855469zm0 0" fill="url(#g)"/><path d="m23.816406 41.925781c-10.445312 0-18.855468-8.40625-18.855468-18.851562 0-.0625 0-.125 0-.183594.101562 10.355469 8.472656 18.667969 18.855468 18.667969 10.382813 0 18.753906-8.3125 18.851563-18.667969v.183594c0 10.445312-8.410157 18.851562-18.851563 18.851562zm0 0" fill-opacity=".196078"/><path d="m23.816406 4.46875c-10.445312 0-18.855468 8.40625-18.855468 18.851562v.1875c.101562-10.359374 8.472656-18.671874 18.855468-18.671874 10.382813 0 18.753906 8.3125 18.851563 18.671874 0-.0625 0-.125 0-.1875 0-10.445312-8.410157-18.851562-18.851563-18.851562zm0 0" fill="#fff" fill-opacity=".392157"/><path d="m23.816406 4.203125c-10.523437 0-18.996094 8.472656-18.996094 18.996094 0 10.519531 8.472657 18.992187 18.996094 18.992187 10.519532 0 18.992188-8.472656 18.992188-18.992187 0-10.523438-8.472656-18.996094-18.992188-18.996094zm0 .28125c10.367188 0 18.710938 8.34375 18.710938 18.714844 0 10.367187-8.34375 18.710937-18.710938 18.710937-10.371094 0-18.714844-8.34375-18.714844-18.710937 0-10.371094 8.34375-18.714844 18.714844-18.714844zm0 0" fill="#212121"/><path d="m19.84375 18.84375c0-1.371094-1.105469-2.480469-2.480469-2.480469-1.261719 0-2.300781.9375-2.457031 2.15625-1.164062-.371093-1.511719-1.324219-1.511719-.667969.171875 1.617188 1.945313 3.429688 3.902344 3.472657h.066406c1.375 0 2.480469-1.105469 2.480469-2.480469zm0 0" fill="url(#i)"/><path d="m30.265625 16.296875c1.367187 0 2.480469 1.109375 2.480469 2.480469s-1.113282 2.480468-2.480469 2.480468c-1.371094 0-2.480469-1.109374-2.480469-2.480468s1.109375-2.480469 2.480469-2.480469zm0 0" fill="url(#j)"/><path d="m30.265625 16.296875c-1.375 0-2.480469 1.105469-2.480469 2.480469 0 .117187.007813.234375.023438.347656.167968-1.207031 1.199218-2.128906 2.457031-2.128906 1.253906 0 2.285156.921875 2.457031 2.128906.015625-.113281.023438-.230469.023438-.347656 0-1.375-1.105469-2.480469-2.480469-2.480469zm0 0" fill="#fff" fill-opacity=".392157"/><path d="m322.802507-41.183265c14.581941 0 26.455807 11.832203 26.455807 26.455807 0 14.623603-11.873866 26.455807-26.455807 26.455807-14.623603 0-26.455807-11.832204-26.455807-26.455807 0-14.623604 11.832204-26.455807 26.455807-26.455807zm0 0" fill="none" stroke="#212121" stroke-linecap="square" stroke-linejoin="round" stroke-width="3" transform="matrix(.093759 0 0 .093759 0 20.158175)"/><path d="m17.363281 16.363281c-1.261719 0-2.300781.9375-2.457031 2.15625-1.164062-.371093-1.511719-1.324219-1.511719-.667969.019531.160157.050781.320313.097657.480469.167968.058594.582031.621094 1.414062.886719.15625-1.21875 1.195312-2.15625 2.457031-2.15625 1.257813 0 2.289063.925781 2.457031 2.132812.015626-.113281.023438-.230468.023438-.351562 0-1.371094-1.105469-2.480469-2.480469-2.480469zm0 0" fill="#fff" fill-opacity=".392157"/><path d="m211.646455-14.019193c0-14.623603-11.79054-26.455807-26.455806-26.455807-13.457049 0-24.539324 9.999046-26.205831 22.997804-12.415481-3.957955-16.123461-14.123651-16.123461-7.124319 1.833159 17.248352 20.748019 36.57984 41.621026 37.038129h.708266c14.665266 0 26.455806-11.790541 26.455806-26.455807zm0 0" fill="none" stroke="#212121" stroke-linecap="square" stroke-linejoin="round" stroke-width="3" transform="matrix(.093759 0 0 .093759 0 20.158175)"/><path d="m31.757812 28.160156c-.441406 0-.859374.199219-1.140624.539063-.953126 1.109375-3.847657 2.082031-6.800782 2.082031-2.957031 0-5.847656-.972656-6.800781-2.082031-.347656-.417969-.890625-.613281-1.421875-.515625s-.96875.472656-1.148438.980468c-.175781.511719-.0625 1.078126.292969 1.484376 2.023438 2.359374 5.582031 3.128906 9.078125 3.128906 3.492188 0 7.050782-.769532 9.074219-3.128906.390625-.445313.484375-1.074219.238281-1.613282-.242187-.535156-.78125-.878906-1.371094-.875zm0 0" fill="url(#k)"/><path d="m15.828125 28.160156c-.4375.007813-.847656.210938-1.125.546875-.273437.339844-.390625.78125-.3125 1.210938.101563-.574219.523437-1.035157 1.089844-1.1875.5625-.148438 1.160156.042969 1.535156.488281.953125 1.113281 3.84375 2.082031 6.800781 2.082031 2.953125 0 5.847656-.96875 6.800782-2.082031.28125-.335938.699218-.535156 1.140624-.539062.726563-.003907 1.355469.515624 1.484376 1.234374.074218-.4375-.046876-.886718-.332032-1.226562-.289062-.335938-.710937-.53125-1.152344-.527344-.441406 0-.859374.199219-1.140624.539063-.953126 1.109375-3.847657 2.082031-6.800782 2.082031-2.957031 0-5.847656-.972656-6.800781-2.082031-.292969-.351563-.730469-.550781-1.1875-.539063zm0 0" fill="#fff" fill-opacity=".392157"/><path d="m33.214844 30.039062c-.0625.226563-.171875.433594-.324219.609376-2.023437 2.359374-5.582031 3.128906-9.074219 3.128906-3.496094 0-7.054687-.769532-9.078125-3.128906-.152343-.175782-.261719-.382813-.324219-.605469-.128906.484375-.007812 1 .324219 1.375 2.023438 2.359375 5.582031 3.128906 9.078125 3.128906 3.492188 0 7.050782-.769531 9.074219-3.128906.332031-.375.453125-.894531.324219-1.378907zm0 0" fill-opacity=".235294"/><path d="m338.717654 85.346318c-4.707884 0-9.165791 2.124797-12.165505 5.749451-10.165696 11.832204-41.037748 22.206213-72.53474 22.206213-31.538655 0-62.369044-10.374009-72.53474-22.206213-3.707979-4.457907-9.499093-6.541042-15.165218-5.499475-5.666126 1.041568-10.332347 5.041186-12.24883 10.457335-1.874821 5.457812-.666603 11.498902 3.124701 15.831822 21.581273 25.164263 59.535981 33.371813 96.824087 33.371813 37.246443 0 75.201152-8.20755 96.782425-33.371813 4.166268-4.749547 5.166173-11.45724 2.541424-17.206691-2.583087-5.707788-8.332538-9.374104-14.623604-9.332442zm0 0" fill="none" stroke="#212121" stroke-linecap="round" stroke-linejoin="round" stroke-width="3" transform="matrix(.093759 0 0 .093759 0 20.158175)"/><g fill-opacity=".235294"><path d="m13.453125 18.328125c-.039063.007813-.058594.074219-.058594.222656.171875 1.617188 1.945313 3.429688 3.902344 3.472657h.066406c1.375 0 2.480469-1.105469 2.480469-2.480469 0-.09375-.003906-.1875-.015625-.28125-.136719 1.242187-1.183594 2.199219-2.464844 2.199219-.023437 0-.042969 0-.066406 0-1.820313-.039063-3.484375-1.613282-3.84375-3.132813zm0 0"/><path d="m27.800781 19.195312c-.011719.089844-.015625.1875-.015625.28125 0 1.375 1.105469 2.480469 2.480469 2.480469s2.480469-1.105469 2.480469-2.480469c0-.09375-.007813-.191406-.015625-.28125-.140625 1.238282-1.1875 2.199219-2.464844 2.199219-1.28125 0-2.328125-.960937-2.464844-2.199219zm0 0"/></g></svg>

<?xml version="1.0" encoding="UTF-8"?>
<svg xmlns="http://www.w3.org/2000/svg" xmlns:xlink="http://www.w3.org/1999/xlink" width="48px" height="48px" viewBox="0 0 48 48" version="1.1">
<defs>
<radialGradient id="radial0" gradientUnits="userSpaceOnUse" cx="450.908936" cy="189.579361" fx="450.908936" fy="189.579361" r="21.166656" gradientTransform="matrix(0.000000261256,-0.117199,-0.210958,-0.000000152308,66.784728,95.392994)">
<stop offset="0" style="stop-color:rgb(0%,0%,0%);stop-opacity:0.313726;"/>
<stop offset="0.222222" style="stop-color:rgb(0%,0%,0%);stop-opacity:0.27451;"/>
<stop offset="1" style="stop-color:rgb(0%,0%,0%);stop-opacity:0;"/>
</radialGradient>
<radialGradient id="radial1" gradientUnits="userSpaceOnUse" cx="450.908936" cy="189.579361" fx="450.908936" fy="189.579361" r="21.166656" gradientTransform="matrix(-0.000000261256,0.117199,0.210958,0.000000152308,-19.155178,-11.291223)">
<stop offset="0" style="stop-color:rgb(0%,0%,0%);stop-opacity:0.313726;"/>
<stop offset="0.222222" style="stop-color:rgb(0%,0%,0%);stop-opacity:0.27451;"/>
<stop offset="1" style="stop-color:rgb(0%,0%,0%);stop-opacity:0;"/>
</radialGradient>
<radialGradient id="radial2" gradientUnits="userSpaceOnUse" cx="450.908936" cy="189.579361" fx="450.908936" fy="189.579361" r="21.166656" gradientTransform="matrix(-0.000000261256,-0.117199,0.210958,-0.000000152308,-19.155178,95.392994)">
<stop offset="0" style="stop-color:rgb(0%,0%,0%);stop-opacity:0.313726;"/>
<stop offset="0.222222" style="stop-color:rgb(0%,0%,0%);stop-opacity:0.27451;"/>
<stop offset="1" style="stop-color:rgb(0%,0%,0%);stop-opacity:0;"/>
</radialGradient>
<radialGradient id="radial3" gradientUnits="userSpaceOnUse" cx="450.908936" cy="189.579361" fx="450.908936" fy="189.579361" r="21.166656" gradientTransform="matrix(0.000000261256,0.117199,-0.210958,0.000000152308,66.784725,-11.291224)">
<stop offset="0" style="stop-color:rgb(0%,0%,0%);stop-opacity:0.313726;"/>
<stop offset="0.222222" style="stop-color:rgb(0%,0%,0%);stop-opacity:0.27451;"/>
<stop offset="1" style="stop-color:rgb(0%,0%,0%);stop-opacity:0;"/>
</radialGradient>
<linearGradient id="linear0" gradientUnits="userSpaceOnUse" x1="255.323059" y1="233.5" x2="255.323044" y2="254.666656" gradientTransform="matrix(0.0200401,0,0,0.093759,18.698079,20.158175)">
<stop offset="0" style="stop-color:rgb(0%,0%,0%);stop-opacity:0.27451;"/>
<stop offset="1" style="stop-color:rgb(0%,0%,0%);stop-opacity:0;"/>
</linearGradient>
<linearGradient id="linear1" gradientUnits="userSpaceOnUse" x1="254" y1="-168.666672" x2="254" y2="233.5" gradientTransform="matrix(0.093759,0,0,0.093759,0,20.158175)">
<stop offset="0" style="stop-color:rgb(100%,71.764708%,30.19608%);stop-opacity:1;"/>
<stop offset="1" style="stop-color:rgb(100%,65.490198%,14.901961%);stop-opacity:1;"/>
</linearGradient>
<linearGradient id="linear2" gradientUnits="userSpaceOnUse" x1="190.50029" y1="30.968079" x2="190.50029" y2="-32.531933" gradientTransform="matrix(0.0781324,0,0,0.0781324,2.480686,18.793351)">
<stop offset="0" style="stop-color:rgb(25.882354%,25.882354%,25.882354%);stop-opacity:1;"/>
<stop offset="1" style="stop-color:rgb(38.039216%,38.039216%,38.039216%);stop-opacity:1;"/>
</linearGradient>
<linearGradient id="linear3" gradientUnits="userSpaceOnUse" x1="196.850006" y1="31.838659" x2="196.850006" y2="-31.661354" gradientTransform="matrix(0.0781324,0,0,0.0781324,15.380377,18.725331)">
<stop offset="0" style="stop-color:rgb(25.882354%,25.882354%,25.882354%);stop-opacity:1;"/>
<stop offset="1" style="stop-color:rgb(38.039216%,38.039216%,38.039216%);stop-opacity:1;"/>
</linearGradient>
<linearGradient id="linear4" gradientUnits="userSpaceOnUse" x1="254" y1="159.416672" x2="254" y2="95.916664" gradientTransform="matrix(0.093759,0,0,0.093759,0,19.687671)">
<stop offset="0" style="stop-color:rgb(25.882354%,25.882354%,25.882354%);stop-opacity:1;"/>
<stop offset="1" style="stop-color:rgb(38.039216%,38.039216%,38.039216%);stop-opacity:1;"/>
</linearGradient>
</defs>
<g id="surface1">
<path style=" stroke:none;fill-rule:nonzero;fill:url(#radial0);" d="M 27.289062 42.050781 L 31.257812 42.050781 L 31.257812 40.066406 L 27.289062 40.066406 Z M 27.289062 42.050781 "/>
<path style=" stroke:none;fill-rule:nonzero;fill:url(#radial1);" d="M 20.339844 42.050781 L 16.371094 42.050781 L 16.371094 44.035156 L 20.339844 44.035156 Z M 20.339844 42.050781 "/>
<path style=" stroke:none;fill-rule:nonzero;fill:url(#radial2);" d="M 20.339844 42.050781 L 16.371094 42.050781 L 16.371094 40.066406 L 20.339844 40.066406 Z M 20.339844 42.050781 "/>
<path style=" stroke:none;fill-rule:nonzero;fill:url(#radial3);" d="M 27.289062 42.050781 L 31.257812 42.050781 L 31.257812 44.035156 L 27.289062 44.035156 Z M 27.289062 42.050781 "/>
<path style=" stroke:none;fill-rule:nonzero;fill:url(#linear0);" d="M 20.339844 41.554688 L 27.289062 41.554688 L 27.289062 44.035156 L 20.339844 44.035156 Z M 20.339844 41.554688 "/>
<path style=" stroke:none;fill-rule:nonzero;fill:url(#linear1);" d="M 23.816406 4.34375 C 34.226562 4.34375 42.667969 12.785156 42.667969 23.199219 C 42.667969 33.609375 34.226562 42.050781 23.816406 42.050781 C 13.402344 42.050781 4.960938 33.609375 4.960938 23.199219 C 4.960938 12.785156 13.402344 4.34375 23.816406 4.34375 Z M 23.816406 4.34375 "/>
<path style=" stroke:none;fill-rule:nonzero;fill:rgb(0%,0%,0%);fill-opacity:0.196078;" d="M 23.816406 41.925781 C 13.371094 41.925781 4.960938 33.519531 4.960938 23.074219 C 4.960938 23.011719 4.960938 22.949219 4.960938 22.890625 C 5.0625 33.246094 13.433594 41.558594 23.816406 41.558594 C 34.199219 41.558594 42.570312 33.246094 42.667969 22.890625 C 42.667969 22.949219 42.667969 23.011719 42.667969 23.074219 C 42.667969 33.519531 34.257812 41.925781 23.816406 41.925781 Z M 23.816406 41.925781 "/>
<path style=" stroke:none;fill-rule:nonzero;fill:rgb(100%,100%,100%);fill-opacity:0.392157;" d="M 23.816406 4.46875 C 13.371094 4.46875 4.960938 12.875 4.960938 23.320312 C 4.960938 23.382812 4.960938 23.445312 4.960938 23.507812 C 5.0625 13.148438 13.433594 4.835938 23.816406 4.835938 C 34.199219 4.835938 42.570312 13.148438 42.667969 23.507812 C 42.667969 23.445312 42.667969 23.382812 42.667969 23.320312 C 42.667969 12.875 34.257812 4.46875 23.816406 4.46875 Z M 23.816406 4.46875 "/>
<path style=" stroke:none;fill-rule:nonzero;fill:rgb(12.941177%,12.941177%,12.941177%);fill-opacity:1;" d="M 23.816406 4.203125 C 13.292969 4.203125 4.820312 12.675781 4.820312 23.199219 C 4.820312 33.71875 13.292969 42.191406 23.816406 42.191406 C 34.335938 42.191406 42.808594 33.71875 42.808594 23.199219 C 42.808594 12.675781 34.335938 4.203125 23.816406 4.203125 Z M 23.816406 4.484375 C 34.183594 4.484375 42.527344 12.828125 42.527344 23.199219 C 42.527344 33.566406 34.183594 41.910156 23.816406 41.910156 C 13.445312 41.910156 5.101562 33.566406 5.101562 23.199219 C 5.101562 12.828125 13.445312 4.484375 23.816406 4.484375 Z M 23.816406 4.484375 "/>
<path style=" stroke:none;fill-rule:nonzero;fill:url(#linear2);" d="M 19.84375 18.84375 C 19.84375 17.472656 18.738281 16.363281 17.363281 16.363281 C 16.101562 16.363281 15.0625 17.300781 14.90625 18.519531 C 13.742188 18.148438 13.394531 17.195312 13.394531 17.851562 C 13.566406 19.46875 15.339844 21.28125 17.296875 21.324219 C 17.320312 21.324219 17.339844 21.324219 17.363281 21.324219 C 18.738281 21.324219 19.84375 20.21875 19.84375 18.84375 Z M 19.84375 18.84375 "/>
<path style=" stroke:none;fill-rule:nonzero;fill:url(#linear3);" d="M 30.265625 16.296875 C 31.632812 16.296875 32.746094 17.40625 32.746094 18.777344 C 32.746094 20.148438 31.632812 21.257812 30.265625 21.257812 C 28.894531 21.257812 27.785156 20.148438 27.785156 18.777344 C 27.785156 17.40625 28.894531 16.296875 30.265625 16.296875 Z M 30.265625 16.296875 "/>
<path style=" stroke:none;fill-rule:nonzero;fill:rgb(100%,100%,100%);fill-opacity:0.392157;" d="M 30.265625 16.296875 C 28.890625 16.296875 27.785156 17.402344 27.785156 18.777344 C 27.785156 18.894531 27.792969 19.011719 27.808594 19.125 C 27.976562 17.917969 29.007812 16.996094 30.265625 16.996094 C 31.519531 16.996094 32.550781 17.917969 32.722656 19.125 C 32.738281 19.011719 32.746094 18.894531 32.746094 18.777344 C 32.746094 17.402344 31.640625 16.296875 30.265625 16.296875 Z M 30.265625 16.296875 "/>
<path style="fill:none;stroke-width:3;stroke-linecap:square;stroke-linejoin:round;stroke:rgb(12.941177%,12.941177%,12.941177%);stroke-opacity:1;stroke-miterlimit:4;" d="M 322.802507 -41.183265 C 337.384448 -41.183265 349.258314 -29.351062 349.258314 -14.727458 C 349.258314 -0.103855 337.384448 11.728349 322.802507 11.728349 C 308.178904 11.728349 296.3467 -0.103855 296.3467 -14.727458 C 296.3467 -29.351062 308.178904 -41.183265 322.802507 -41.183265 Z M 322.802507 -41.183265 " transform="matrix(0.093759,0,0,0.093759,0,20.158175)"/>
<path style=" stroke:none;fill-rule:nonzero;fill:rgb(100%,100%,100%);fill-opacity:0.392157;" d="M 17.363281 16.363281 C 16.101562 16.363281 15.0625 17.300781 14.90625 18.519531 C 13.742188 18.148438 13.394531 17.195312 13.394531 17.851562 C 13.414062 18.011719 13.445312 18.171875 13.492188 18.332031 C 13.660156 18.390625 14.074219 18.953125 14.90625 19.21875 C 15.0625 18 16.101562 17.0625 17.363281 17.0625 C 18.621094 17.0625 19.652344 17.988281 19.820312 19.195312 C 19.835938 19.082031 19.84375 18.964844 19.84375 18.84375 C 19.84375 17.472656 18.738281 16.363281 17.363281 16.363281 Z M 17.363281 16.363281 "/>
<path style="fill:none;stroke-width:3;stroke-linecap:square;stroke-linejoin:round;stroke:rgb(12.941177%,12.941177%,12.941177%);stroke-opacity:1;stroke-miterlimit:4;" d="M 211.646455 -14.019193 C 211.646455 -28.642796 199.855915 -40.475 185.190649 -40.475 C 171.7336 -40.475 160.651325 -30.475954 158.984818 -17.477196 C 146.569337 -21.435151 142.861357 -31.600847 142.861357 -24.601515 C 144.694516 -7.353163 163.609376 11.978325 184.482383 12.436614 C 184.732359 12.436614 184.940672 12.436614 185.190649 12.436614 C 199.855915 12.436614 211.646455 0.646073 211.646455 -14.019193 Z M 211.646455 -14.019193 " transform="matrix(0.093759,0,0,0.093759,0,20.158175)"/>
<path style=" stroke:none;fill-rule:nonzero;fill:url(#linear4);" d="M 31.757812 28.160156 C 31.316406 28.160156 30.898438 28.359375 30.617188 28.699219 C 29.664062 29.808594 26.769531 30.78125 23.816406 30.78125 C 20.859375 30.78125 17.96875 29.808594 17.015625 28.699219 C 16.667969 28.28125 16.125 28.085938 15.59375 28.183594 C 15.0625 28.28125 14.625 28.65625 14.445312 29.164062 C 14.269531 29.675781 14.382812 30.242188 14.738281 30.648438 C 16.761719 33.007812 20.320312 33.777344 23.816406 33.777344 C 27.308594 33.777344 30.867188 33.007812 32.890625 30.648438 C 33.28125 30.203125 33.375 29.574219 33.128906 29.035156 C 32.886719 28.5 32.347656 28.15625 31.757812 28.160156 Z M 31.757812 28.160156 "/>
<path style=" stroke:none;fill-rule:nonzero;fill:rgb(100%,100%,100%);fill-opacity:0.392157;" d="M 15.828125 28.160156 C 15.390625 28.167969 14.980469 28.371094 14.703125 28.707031 C 14.429688 29.046875 14.3125 29.488281 14.390625 29.917969 C 14.492188 29.34375 14.914062 28.882812 15.480469 28.730469 C 16.042969 28.582031 16.640625 28.773438 17.015625 29.21875 C 17.96875 30.332031 20.859375 31.300781 23.816406 31.300781 C 26.769531 31.300781 29.664062 30.332031 30.617188 29.21875 C 30.898438 28.882812 31.316406 28.683594 31.757812 28.679688 C 32.484375 28.675781 33.113281 29.195312 33.242188 29.914062 C 33.316406 29.476562 33.195312 29.027344 32.910156 28.6875 C 32.621094 28.351562 32.199219 28.15625 31.757812 28.160156 C 31.316406 28.160156 30.898438 28.359375 30.617188 28.699219 C 29.664062 29.808594 26.769531 30.78125 23.816406 30.78125 C 20.859375 30.78125 17.96875 29.808594 17.015625 28.699219 C 16.722656 28.347656 16.285156 28.148438 15.828125 28.160156 Z M 15.828125 28.160156 "/>
<path style=" stroke:none;fill-rule:nonzero;fill:rgb(0%,0%,0%);fill-opacity:0.235294;" d="M 33.214844 30.039062 C 33.152344 30.265625 33.042969 30.472656 32.890625 30.648438 C 30.867188 33.007812 27.308594 33.777344 23.816406 33.777344 C 20.320312 33.777344 16.761719 33.007812 14.738281 30.648438 C 14.585938 30.472656 14.476562 30.265625 14.414062 30.042969 C 14.285156 30.527344 14.40625 31.042969 14.738281 31.417969 C 16.761719 33.777344 20.320312 34.546875 23.816406 34.546875 C 27.308594 34.546875 30.867188 33.777344 32.890625 31.417969 C 33.222656 31.042969 33.34375 30.523438 33.214844 30.039062 Z M 33.214844 30.039062 "/>
<path style="fill:none;stroke-width:3;stroke-linecap:round;stroke-linejoin:round;stroke:rgb(12.941177%,12.941177%,12.941177%);stroke-opacity:1;stroke-miterlimit:4;" d="M 338.717654 85.346318 C 334.00977 85.346318 329.551863 87.471115 326.552149 91.095769 C 316.386453 102.927973 285.514401 113.301982 254.017409 113.301982 C 222.478754 113.301982 191.648365 102.927973 181.482669 91.095769 C 177.77469 86.637862 171.983576 84.554727 166.317451 85.596294 C 160.651325 86.637862 155.985104 90.63748 154.068621 96.053629 C 152.1938 101.511441 153.402018 107.552531 157.193322 111.885451 C 178.774595 137.049714 216.729303 145.257264 254.017409 145.257264 C 291.263852 145.257264 329.218561 137.049714 350.799834 111.885451 C 354.966102 107.135904 355.966007 100.428211 353.341258 94.67876 C 350.758171 88.970972 345.00872 85.304656 338.717654 85.346318 Z M 338.717654 85.346318 " transform="matrix(0.093759,0,0,0.093759,0,20.158175)"/>
<path style=" stroke:none;fill-rule:nonzero;fill:rgb(0%,0%,0%);fill-opacity:0.235294;" d="M 13.453125 18.328125 C 13.414062 18.335938 13.394531 18.402344 13.394531 18.550781 C 13.566406 20.167969 15.339844 21.980469 17.296875 22.023438 C 17.320312 22.023438 17.339844 22.023438 17.363281 22.023438 C 18.738281 22.023438 19.84375 20.917969 19.84375 19.542969 C 19.84375 19.449219 19.839844 19.355469 19.828125 19.261719 C 19.691406 20.503906 18.644531 21.460938 17.363281 21.460938 C 17.339844 21.460938 17.320312 21.460938 17.296875 21.460938 C 15.476562 21.421875 13.8125 19.847656 13.453125 18.328125 Z M 13.453125 18.328125 "/>
<path style=" stroke:none;fill-rule:nonzero;fill:rgb(0%,0%,0%);fill-opacity:0.235294;" d="M 27.800781 19.195312 C 27.789062 19.285156 27.785156 19.382812 27.785156 19.476562 C 27.785156 20.851562 28.890625 21.957031 30.265625 21.957031 C 31.640625 21.957031 32.746094 20.851562 32.746094 19.476562 C 32.746094 19.382812 32.738281 19.285156 32.730469 19.195312 C 32.589844 20.433594 31.542969 21.394531 30.265625 21.394531 C 28.984375 21.394531 27.9375 20.433594 27.800781 19.195312 Z M 27.800781 19.195312 "/>
</g>
</svg>
